dist/images/services-icons/5.svg

<svg width="76" height="75" viewBox="0 0 76 75" fill="none" xmlns="http://www.w3.org/2000/svg">
<path d="M36.8574 75C16.5014 75 0 58.4973 0 38.1413C0 28.133 3.9891 19.0558 10.4628 12.4145C10.5472 12.3277 10.6318 12.2421 10.7172 12.1559L10.7191 12.1583C4.24569 18.7995 0.256294 27.8762 0.256294 37.8844C0.256294 58.241 16.7578 74.7436 37.1136 74.7436C47.1217 74.7436 56.1988 70.754 62.8399 64.28L62.8417 64.2816C62.7561 64.3672 62.6699 64.4516 62.5837 64.536C55.942 71.011 46.8654 75 36.8574 75Z" fill="#969A9D"/>
<path d="M37.1151 74.7435C16.7593 74.7435 0.257812 58.2409 0.257812 37.8843C0.257812 27.8761 4.24721 18.7994 10.7206 12.1582C10.8053 12.0714 10.8899 11.9852 10.975 11.8995L10.9772 11.9013C4.50375 18.5432 0.514347 27.6199 0.514347 37.6281C0.514347 57.9846 17.0158 74.4875 37.372 74.4875C47.38 74.4875 56.4566 70.4978 63.0977 64.0229L63.1001 64.0254C63.0139 64.1103 62.9282 64.1955 62.8414 64.2799C56.2003 70.7539 47.1232 74.7435 37.1151 74.7435Z" fill="#96999C"/>
<path d="M37.3771 74.4874C17.021 74.4874 0.519531 57.9845 0.519531 37.628C0.519531 27.6198 4.50893 18.5431 10.9824 11.9013C11.067 11.8151 11.1517 11.7289 11.2368 11.6433L11.2389 11.6451C4.76546 18.2863 0.775821 27.3636 0.775821 37.3718C0.775821 57.7277 17.2775 74.2304 37.6334 74.2304C47.6414 74.2304 56.718 70.2414 63.3597 63.7668L63.3615 63.7684C63.2759 63.8542 63.1897 63.9384 63.1029 64.0228C56.4617 70.4977 47.3852 74.4874 37.3771 74.4874Z" fill="#96989A"/>
<path d="M37.6232 74.2305C17.2673 74.2305 0.765625 57.7278 0.765625 37.3719C0.765625 27.3636 4.75526 18.2863 11.2287 11.6451C11.3131 11.5583 11.3978 11.4727 11.4831 11.3865L11.485 11.3889C5.01156 18.0301 1.02216 27.1068 1.02216 37.115C1.02216 57.4714 17.5236 73.9744 37.8794 73.9744C47.8875 73.9744 56.9646 69.9847 63.6057 63.5105L63.6075 63.5124C63.5219 63.5973 63.4357 63.6824 63.3495 63.7668C56.7078 70.2415 47.6312 74.2305 37.6232 74.2305Z" fill="#95979A"/>
<path d="M37.8807 73.9746C17.5249 73.9746 1.02344 57.4716 1.02344 37.1152C1.02344 27.107 5.01283 18.0303 11.4863 11.3891C11.5707 11.3023 11.6556 11.2161 11.7409 11.1304L11.7428 11.1322C10.1952 12.7206 8.7885 14.4484 7.54529 16.2941C7.5441 16.2959 7.54272 16.2983 7.54128 16.3001C7.5329 16.3127 7.52446 16.3252 7.51608 16.3378C7.51351 16.342 7.51135 16.3444 7.50883 16.3486C7.50135 16.36 7.49405 16.3707 7.48638 16.3821C7.48381 16.3857 7.47956 16.3923 7.47699 16.3959C7.46998 16.4067 7.46345 16.4162 7.45645 16.427C7.45244 16.433 7.44915 16.4378 7.44544 16.4438C7.43957 16.4522 7.43304 16.4618 7.42741 16.4707C7.42227 16.4785 7.41783 16.4851 7.41269 16.4923C7.40802 16.4995 7.40287 16.5073 7.3982 16.5144C7.39233 16.5234 7.38718 16.5312 7.38138 16.5396C7.37689 16.5468 7.37293 16.5528 7.3685 16.5593C7.36216 16.5689 7.35563 16.5785 7.34929 16.5881C7.34629 16.5929 7.34276 16.5982 7.33971 16.603C7.33198 16.6144 7.32522 16.6246 7.31774 16.6366C7.31516 16.6402 7.31331 16.6431 7.31073 16.6467C7.30253 16.6593 7.29367 16.6731 7.28547 16.6857C7.28409 16.6875 7.28361 16.6881 7.28242 16.6904C7.27284 16.7048 7.26374 16.7186 7.25416 16.7335C7.25392 16.7341 7.25368 16.7341 7.2532 16.7347C3.47502 22.5211 1.27979 29.4329 1.27979 36.859C1.27979 48.8279 6.98403 59.4635 15.8225 66.1971C22.0164 70.9159 29.7501 73.7176 38.1375 73.7176C42.1924 73.7176 46.0951 73.0627 49.7441 71.8535L49.7447 71.8527C49.7614 71.8474 49.7788 71.8415 49.7955 71.8359C49.7967 71.8359 49.7979 71.8354 49.7991 71.8348C49.8147 71.8294 49.8291 71.8247 49.8446 71.8198C49.8482 71.8186 49.8506 71.8175 49.8542 71.8163C49.868 71.8121 49.8817 71.8074 49.8955 71.8025C49.9003 71.8013 49.9039 71.8001 49.9081 71.7983C49.9201 71.7941 49.9314 71.7905 49.944 71.7863C49.9506 71.784 49.9566 71.7822 49.9632 71.7798C49.9733 71.7761 49.9835 71.7726 49.9937 71.7695C50.0015 71.7667 50.0093 71.7641 50.017 71.7611C50.0254 71.7588 50.0344 71.7557 50.0428 71.7529C50.0524 71.7492 50.0619 71.7461 50.0721 71.7426C50.0787 71.7403 50.0847 71.7384 50.0913 71.7361C50.1027 71.7326 50.1146 71.7283 50.1254 71.7241C50.1308 71.7227 50.1362 71.7204 50.141 71.7192C50.1547 71.7146 50.1673 71.7097 50.1811 71.7054C50.1829 71.7043 50.1853 71.7038 50.1871 71.7031C50.2026 71.6977 50.2188 71.6924 50.2344 71.687C50.2356 71.6863 50.2368 71.6858 50.238 71.6858C51.1156 71.3804 51.9801 71.0427 52.826 70.6746C52.823 70.6764 52.8194 70.6776 52.8165 70.6793C56.9473 68.8839 60.6849 66.354 63.8644 63.2543L63.8656 63.2563C63.78 63.3411 63.6938 63.4258 63.607 63.5107C56.9659 69.9849 47.8888 73.9746 37.8807 73.9746Z" fill="#939699"/>
<path d="M38.1421 73.7172C42.1976 73.7172 46.0991 73.0623 49.7487 71.853C46.0997 73.0623 42.197 73.7172 38.1421 73.7172ZM49.8588 71.8159C49.872 71.8117 49.887 71.807 49.9001 71.8021C49.8864 71.807 49.8726 71.8117 49.8588 71.8159ZM49.9127 71.7978C49.9241 71.7944 49.9373 71.7895 49.9486 71.7859C49.9361 71.7901 49.9247 71.7936 49.9127 71.7978ZM50.0217 71.7607C50.0306 71.7578 50.0384 71.7553 50.0474 71.7525C50.039 71.7553 50.03 71.7583 50.0217 71.7607ZM50.13 71.7237C50.1348 71.7223 50.1414 71.7199 50.1456 71.7188C50.1408 71.7199 50.1354 71.7223 50.13 71.7237ZM50.239 71.6865C50.2414 71.6853 50.2402 71.6858 50.2426 71.6853C50.2414 71.6853 50.2402 71.6858 50.239 71.6865ZM7.25781 16.7343C7.25829 16.7337 7.25853 16.7337 7.25877 16.7331L7.25781 16.7343ZM7.31535 16.6463C7.31792 16.6427 7.31977 16.6397 7.32235 16.6361C7.32049 16.6391 7.3172 16.6439 7.31535 16.6463ZM7.37312 16.5589C7.37755 16.5523 7.3815 16.5463 7.38599 16.5392C7.3815 16.5463 7.37779 16.5523 7.37312 16.5589ZM7.40281 16.514C7.40748 16.5068 7.41263 16.4991 7.4173 16.4919C7.41287 16.4991 7.40724 16.5074 7.40281 16.514ZM7.49099 16.3817C7.49866 16.3703 7.50596 16.3596 7.51344 16.3482C7.50572 16.3596 7.49866 16.3703 7.49099 16.3817ZM7.5499 16.2937C8.79312 14.4479 10.1998 12.7201 11.7474 11.1318C11.8318 11.0456 11.9165 10.9594 12.0018 10.8738C10.3531 12.5322 8.86089 14.3474 7.5499 16.2937Z" fill="#939599"/>
<mask id="mask0_801_4978" style="mask-type:luminance" maskUnits="userSpaceOnUse" x="1" y="0" width="74" height="74">
<path d="M38.027 73.7178C29.6641 73.7178 21.9531 70.934 15.7774 66.2454C6.96486 59.5549 1.27734 48.9874 1.27734 37.0951C1.27734 29.7165 3.46613 22.8489 7.23324 17.0996L7.23419 17.0984C7.24374 17.0836 7.25281 17.0699 7.26236 17.0556C7.26356 17.0532 7.26403 17.0526 7.26541 17.0509C7.27358 17.0384 7.28242 17.0247 7.2906 17.0122C7.29245 17.0098 7.29573 17.0051 7.29758 17.0021C7.30504 16.9902 7.31179 16.9801 7.31949 16.9688C7.32253 16.964 7.32606 16.9587 7.32904 16.9539C7.33537 16.9444 7.34187 16.9349 7.3482 16.9253C7.35286 16.9188 7.35656 16.9129 7.36104 16.9057C7.36683 16.8974 7.37196 16.8897 7.37781 16.8807C7.38223 16.8742 7.38783 16.8659 7.39225 16.8587C7.39739 16.8516 7.4018 16.845 7.40694 16.8373C7.41255 16.8284 7.41906 16.8189 7.42491 16.8105C7.42861 16.8046 7.43189 16.7998 7.43589 16.7939C7.44287 16.7832 7.44938 16.7737 7.45636 16.763C7.45893 16.7594 7.46317 16.7528 7.46573 16.7493C7.47337 16.738 7.48042 16.7273 7.48812 16.716C7.49063 16.7118 7.49278 16.7094 7.49534 16.7052C7.5037 16.6928 7.51211 16.6803 7.52047 16.6678C7.5219 16.666 7.52328 16.6636 7.52447 16.6618C8.83161 14.728 10.3195 12.9244 11.9636 11.2766C12.959 10.2784 14.0108 9.33856 15.1156 8.45937C17.6971 7.2423 20.1125 5.73435 22.3214 3.97774C26.7989 2.04149 31.7402 0.967775 36.9328 0.967775C57.2293 0.967775 73.6822 17.3649 73.6822 37.5912C73.6822 52.205 65.0943 64.8182 52.6724 70.6942C51.829 71.06 50.967 71.3955 50.0919 71.699C50.0895 71.6994 50.0907 71.699 50.0883 71.7001C50.0728 71.7055 50.0567 71.7109 50.0412 71.7161C50.0394 71.7169 50.037 71.7173 50.0352 71.7185C50.0215 71.7227 50.009 71.7276 49.9952 71.7322C49.991 71.7333 49.9845 71.7357 49.9797 71.7371C49.969 71.7413 49.957 71.7455 49.9457 71.7489C49.9391 71.7512 49.9331 71.7531 49.9266 71.7555C49.9164 71.7589 49.9069 71.762 49.8973 71.7656C49.8884 71.7684 49.8806 71.771 49.8717 71.7738C49.8639 71.7768 49.8561 71.7794 49.8484 71.7822C49.8382 71.7852 49.8281 71.7887 49.8179 71.7924C49.8114 71.7947 49.8054 71.7966 49.7988 71.7989C49.7875 71.8024 49.7744 71.8073 49.763 71.8107C49.7588 71.8126 49.7553 71.8138 49.7505 71.815C49.7373 71.8198 49.7224 71.8245 49.7093 71.8286C49.7057 71.8298 49.7033 71.831 49.6997 71.8321C49.6842 71.837 49.6699 71.8417 49.6544 71.847C49.6532 71.8477 49.652 71.8481 49.6508 71.8481C49.6341 71.8537 49.6168 71.8596 49.6001 71.8649L49.5995 71.8656C45.9606 73.0671 42.0705 73.7178 38.027 73.7178ZM74.1818 43.6932C74.1824 43.6926 74.1824 43.6902 74.183 43.689C74.1824 43.6902 74.1824 43.692 74.1818 43.6932ZM74.2015 43.5843C74.2027 43.5796 74.2033 43.5742 74.2045 43.5695C74.2033 43.5748 74.2027 43.5784 74.2015 43.5843ZM74.2111 43.5326C74.2123 43.5272 74.2129 43.5219 74.2141 43.5165C74.2129 43.5213 74.2117 43.5278 74.2111 43.5326ZM74.2308 43.4196C74.2326 43.4118 74.2338 43.4041 74.235 43.3964C74.2338 43.4047 74.2326 43.4112 74.2308 43.4196ZM74.2397 43.3696C74.2409 43.3607 74.2427 43.3535 74.2439 43.3452C74.2427 43.353 74.2409 43.3613 74.2397 43.3696ZM74.2493 43.3131C74.2517 43.3 74.2541 43.2851 74.2564 43.272C74.2541 43.2857 74.2517 43.2994 74.2493 43.3131ZM74.2672 43.2096C74.6021 41.2216 74.777 39.1789 74.777 37.0957C74.777 27.2074 70.8433 18.2328 64.4514 11.6436C70.8433 18.2328 74.777 27.2068 74.777 37.0951C74.777 39.1789 74.6027 41.221 74.2672 43.2096ZM22.3232 3.97596C22.325 3.97477 22.325 3.97477 22.3268 3.97358C24.5043 2.94686 26.8001 2.12656 29.1878 1.53884C26.7989 2.12715 24.5026 2.94745 22.3232 3.97596ZM29.2188 1.5311C29.2242 1.52991 29.2308 1.52814 29.2367 1.52695C29.2308 1.52814 29.2248 1.52991 29.2188 1.5311Z" fill="white"/>
</mask>
<g mask="url(#mask0_801_4978)">
<path d="M38.027 73.7178C29.6641 73.7178 21.9531 70.934 15.7774 66.2454C6.96486 59.5549 1.27734 48.9874 1.27734 37.0951C1.27734 29.7165 3.46613 22.8489 7.23324 17.0996L7.23419 17.0984C7.24374 17.0836 7.25281 17.0699 7.26236 17.0556C7.26356 17.0532 7.26403 17.0526 7.26541 17.0509C7.27358 17.0384 7.28242 17.0247 7.2906 17.0122C7.29245 17.0098 7.29573 17.005 7.29758 17.0021C7.30504 16.9902 7.31179 16.9801 7.31949 16.9688C7.32253 16.964 7.32606 16.9587 7.32904 16.9539C7.33537 16.9444 7.34187 16.9349 7.3482 16.9253C7.35286 16.9188 7.35656 16.9128 7.36104 16.9057C7.36683 16.8974 7.37196 16.8897 7.37781 16.8807C7.38223 16.8742 7.38783 16.8659 7.39225 16.8587C7.39739 16.8516 7.4018 16.845 7.40694 16.8373C7.41255 16.8284 7.41906 16.8189 7.42491 16.8105C7.42861 16.8046 7.43189 16.7998 7.43589 16.7939C7.44287 16.7832 7.44938 16.7737 7.45636 16.7629C7.45893 16.7594 7.46317 16.7528 7.46573 16.7493C7.47337 16.738 7.48042 16.7273 7.48812 16.716C7.49063 16.7118 7.49278 16.7094 7.49534 16.7052C7.5037 16.6928 7.51211 16.6803 7.52047 16.6678C7.5219 16.666 7.52328 16.6636 7.52447 16.6618C8.83161 14.7279 10.3195 12.9244 11.9636 11.2766C12.959 10.2784 14.0108 9.33856 15.1156 8.45937C17.6971 7.24229 20.1125 5.73435 22.3214 3.97774C26.7989 2.04149 31.7402 0.967773 36.9328 0.967773C57.2293 0.967773 73.6822 17.3649 73.6822 37.5912C73.6822 52.205 65.0943 64.8182 52.6724 70.6942C51.829 71.06 50.967 71.3955 50.0919 71.699C50.0895 71.6994 50.0907 71.699 50.0883 71.7001C50.0728 71.7055 50.0567 71.7109 50.0412 71.7161C50.0394 71.7169 50.037 71.7173 50.0352 71.7185C50.0215 71.7227 50.009 71.7276 49.9952 71.7322C49.991 71.7333 49.9845 71.7357 49.9797 71.7371C49.969 71.7413 49.957 71.7455 49.9457 71.7489C49.9391 71.7512 49.9331 71.7531 49.9266 71.7555C49.9164 71.7589 49.9069 71.762 49.8973 71.7656C49.8884 71.7684 49.8806 71.771 49.8717 71.7738C49.8639 71.7768 49.8561 71.7794 49.8484 71.7822C49.8382 71.7852 49.8281 71.7887 49.8179 71.7924C49.8114 71.7947 49.8054 71.7966 49.7988 71.7989C49.7875 71.8024 49.7744 71.8073 49.763 71.8107C49.7588 71.8126 49.7553 71.8138 49.7505 71.815C49.7373 71.8198 49.7224 71.8245 49.7093 71.8286C49.7057 71.8298 49.7033 71.831 49.6997 71.8321C49.6842 71.837 49.6699 71.8417 49.6544 71.847C49.6532 71.8477 49.652 71.8481 49.6508 71.8481C49.6341 71.8537 49.6168 71.8596 49.6001 71.8649L49.5995 71.8656C45.9606 73.0671 42.0705 73.7178 38.027 73.7178ZM74.1818 43.6932C74.1824 43.6926 74.1824 43.6902 74.183 43.689C74.1824 43.6902 74.1824 43.692 74.1818 43.6932ZM74.2015 43.5843C74.2027 43.5796 74.2033 43.5742 74.2045 43.5695C74.2033 43.5748 74.2027 43.5784 74.2015 43.5843ZM74.2111 43.5326C74.2123 43.5272 74.2129 43.5219 74.2141 43.5165C74.2129 43.5213 74.2117 43.5278 74.2111 43.5326ZM74.2308 43.4196C74.2326 43.4118 74.2338 43.4041 74.235 43.3964C74.2338 43.4047 74.2326 43.4112 74.2308 43.4196ZM74.2397 43.3696C74.2409 43.3607 74.2427 43.3535 74.2439 43.3452C74.2427 43.3529 74.2409 43.3613 74.2397 43.3696ZM74.2493 43.3131C74.2517 43.3 74.2541 43.2851 74.2564 43.272C74.2541 43.2857 74.2517 43.2994 74.2493 43.3131ZM74.2672 43.2096C74.6021 41.2216 74.777 39.1789 74.777 37.0957C74.777 27.2074 70.8432 18.2328 64.4514 11.6436C70.8432 18.2328 74.777 27.2068 74.777 37.0951C74.777 39.1789 74.6027 41.221 74.2672 43.2096ZM22.3232 3.97596C22.325 3.97477 22.325 3.97476 22.3268 3.97358C24.5043 2.94686 26.8001 2.12655 29.1878 1.53884C26.7989 2.12715 24.5026 2.94745 22.3232 3.97596ZM29.2188 1.5311C29.2242 1.52991 29.2308 1.52813 29.2367 1.52694C29.2308 1.52813 29.2248 1.52991 29.2188 1.5311Z" fill="url(#paint0_linear_801_4978)"/>
</g>
<path d="M75.004 36.8594C75.004 51.999 65.8772 65.0068 52.8249 70.6791C65.2881 64.767 73.9061 52.0696 73.9061 37.3581C73.9061 17.0016 57.4047 0.498787 37.0486 0.498787C31.8335 0.498787 26.8717 1.58241 22.375 3.53652C27.1566 1.2681 32.5028 7.7044e-05 38.1465 7.7044e-05C58.5021 7.7044e-05 75.004 16.5029 75.004 36.8594Z" fill="white"/>
<path d="M42 21C42 23.2091 40.2091 25 38 25C35.7909 25 34 23.2091 34 21C34 18.7909 35.7909 17 38 17C40.2091 17 42 18.7909 42 21Z" fill="#202020"/>
<path fill-rule="evenodd" clip-rule="evenodd" d="M28.8257 28.0773C29.1699 27.4153 29.854 27 30.6001 27H43.0185C45.1405 27 46.9103 27.7416 48.1537 29.0013C49.3755 30.239 49.9843 31.8719 49.9998 33.4808C50.0153 35.0911 49.4361 36.7407 48.2069 37.9941C47.1529 39.0688 45.7151 39.7579 44.0001 39.9471V55C44.0001 56.0747 43.1508 56.9573 42.0769 56.9985C41.0029 57.0398 40.0884 56.2249 40.006 55.1534L39.1355 43.8366C40.7916 43.3472 42.0001 41.8147 42.0001 40C42.0001 37.7909 40.2092 36 38.0001 36C37.4176 36 36.8642 36.1245 36.3651 36.3483C36.1697 35.7726 35.8 35.2301 35.2514 34.7625C34.2486 33.9077 33.3692 33.1845 32.7401 32.6747C32.426 32.4201 32.1741 32.2186 32.0001 32.0802V31H31.8143L30.6466 33.2457L30.4948 33.4396L30.5107 33.4521L30.5603 33.4911C30.6042 33.5258 30.6695 33.5775 30.7544 33.6449C30.924 33.7798 31.1714 33.9777 31.4809 34.2285C32.0999 34.7302 32.9663 35.4426 33.954 36.2846C34.4597 36.7156 34.5621 37.1367 34.522 37.4839C34.4768 37.8756 34.2289 38.3225 33.7769 38.6823C33.0483 39.2623 31.9384 39.5037 30.8689 38.8563L26.7507 35.5617C26.005 34.9652 25.7851 33.9246 26.2257 33.0773L28.8257 28.0773ZM34.0848 40.8229C33.4523 41.1137 32.7381 41.2693 32.0001 41.2381V55C32.0001 56.0747 32.8494 56.9573 33.9233 56.9985C34.9973 57.0398 35.9118 56.2249 35.9942 55.1534L36.8647 43.8366C35.466 43.4233 34.3866 42.2659 34.0848 40.8229ZM38.0001 42C39.1047 42 40.0001 41.1046 40.0001 40C40.0001 38.8954 39.1047 38 38.0001 38C36.8955 38 36.0001 38.8954 36.0001 40C36.0001 41.1046 36.8955 42 38.0001 42ZM44.0001 31.1075V35.8998C44.641 35.7569 45.0698 35.4801 45.351 35.1934C45.7768 34.7593 46.0061 34.1589 46 33.5192C45.9938 32.8781 45.7509 32.261 45.307 31.8112C45.0204 31.5209 44.6011 31.251 44.0001 31.1075Z" fill="#202020"/>
<defs>
<linearGradient id="paint0_linear_801_4978" x1="-4.49069" y1="90.8889" x2="63.7394" y2="10.9654" gradientUnits="userSpaceOnUse">
<stop stop-color="white"/>
<stop offset="1" stop-color="#EFEFEF"/>
</linearGradient>
</defs>
</svg>

<svg width="76" height="75" fill="none" xmlns="http://www.w3.org/2000/svg"><path d="M36.857 75C16.501 75 0 58.497 0 38.141c0-10.008 3.99-19.085 10.463-25.726l.254-.26.002.003C4.246 18.8.256 27.876.256 37.884c0 20.357 16.502 36.86 36.858 36.86 10.008 0 19.085-3.99 25.726-10.464l.002.002-.258.254C55.942 71.011 46.865 75 36.857 75z" fill="#969A9D"/><path d="M37.115 74.743C16.76 74.743.258 58.242.258 37.884c0-10.008 3.99-19.085 10.463-25.726.084-.087.169-.173.254-.258l.002.001C4.504 18.543.514 27.62.514 37.628c0 20.357 16.502 36.86 36.858 36.86 10.008 0 19.085-3.99 25.726-10.465l.002.002-.259.255c-6.64 6.474-15.718 10.463-25.726 10.463z" fill="#96999C"/><path d="M37.377 74.487C17.021 74.487.52 57.985.52 37.628c0-10.008 3.989-19.085 10.462-25.727l.255-.258.002.002C4.765 18.286.776 27.364.776 37.372c0 20.356 16.502 36.858 36.857 36.858 10.008 0 19.085-3.989 25.727-10.463l.002.001c-.086.086-.172.17-.26.255-6.64 6.475-15.717 10.464-25.725 10.464z" fill="#96989A"/><path d="M37.623 74.23C17.267 74.23.766 57.729.766 37.373c0-10.008 3.99-19.086 10.463-25.727.084-.087.169-.172.254-.258l.002.002C5.012 18.03 1.022 27.107 1.022 37.115c0 20.356 16.502 36.86 36.857 36.86 10.009 0 19.086-3.99 25.727-10.464l.002.001-.258.255C56.707 70.24 47.63 74.23 37.623 74.23z" fill="#95979A"/><path d="M37.88 73.975c-20.355 0-36.857-16.503-36.857-36.86 0-10.008 3.99-19.085 10.463-25.726l.255-.259.002.002a37.1 37.1 0 00-4.198 5.162c0 .002-.002.004-.004.006l-.025.038-.007.01-.023.034-.009.014-.02.031-.012.017a.732.732 0 00-.032.048l-.015.022a1.113 1.113 0 01-.03.045l-.019.03-.01.014a1 1 0 00-.021.034l-.007.01-.026.039c0 .002-.001.002-.003.004a3.23 3.23 0 00-.028.043v.002A36.683 36.683 0 001.28 36.859c0 11.969 5.704 22.605 14.543 29.338a36.696 36.696 0 0022.315 7.52c4.054 0 7.957-.654 11.606-1.864l.051-.017.004-.001.046-.015.01-.004a.952.952 0 00.053-.018l.036-.012.02-.006a.575.575 0 01.03-.01l.023-.009.026-.008.03-.01.018-.007a.507.507 0 00.034-.012l.016-.005.04-.014.006-.002.047-.016a36.81 36.81 0 002.592-1.012l-.01.004a36.915 36.915 0 0011.048-7.425l.002.002-.259.255c-6.641 6.474-15.718 10.464-25.726 10.464z" fill="#939699"/><path d="M38.142 73.717zm11.717-1.901l.041-.014a.909.909 0 01-.041.014zm.054-.018l.036-.012-.036.012zm.109-.037zm.108-.037l.016-.005c-.005 0-.01.003-.016.005zm.109-.038h.004-.004zM7.258 16.734zm.057-.088l.007-.01a.154.154 0 01-.007.01zm.058-.087a.827.827 0 00.013-.02l-.013.02zm.03-.045l.014-.022-.014.022zm.088-.132l.022-.034-.022.034zm.059-.088z" fill="#939599"/><mask id="mask0_801_4978" style="mask-type:luminance" maskUnits="userSpaceOnUse" x="1" y="0" width="74" height="74"><path d="M38.027 73.718a36.67 36.67 0 01-22.25-7.473c-8.812-6.69-14.5-17.258-14.5-29.15A36.356 36.356 0 017.233 17.1l.001-.002a3.183 3.183 0 01.031-.047l.026-.039a.999.999 0 01.029-.043l.009-.015.02-.029a.726.726 0 01.077-.115l.01-.016.02-.031.01-.014.022-.033.007-.01.025-.038.004-.006a36.82 36.82 0 017.592-8.203 36.772 36.772 0 007.205-4.481A36.726 36.726 0 0136.933.968c20.296 0 36.75 16.397 36.75 36.623 0 14.614-8.589 27.227-21.01 33.103-.844.366-1.706.701-2.581 1.005l-.004.001-.047.016-.006.003-.04.013-.015.005a.453.453 0 01-.034.012l-.02.007-.029.01-.025.008-.024.008a.52.52 0 00-.03.01l-.02.007-.035.012a.99.99 0 01-.054.018l-.01.003a1.995 1.995 0 00-.048.016l-.05.017h-.002a36.845 36.845 0 01-11.572 1.853zm36.155-30.025l.001-.004-.001.004zm.02-.109l.002-.015-.002.015zm.01-.051c0-.006 0-.011.002-.017a.152.152 0 00-.003.017zm.019-.113zm.009-.05c0-.01.003-.017.004-.025l-.004.025zm.01-.057l.006-.041-.007.041zm.017-.103c.335-1.988.51-4.031.51-6.114 0-9.889-3.934-18.863-10.326-25.452 6.392 6.589 10.326 15.563 10.326 25.451 0 2.084-.174 4.126-.51 6.115zM22.323 3.976l.004-.002a36.59 36.59 0 01-.004.002zm6.896-2.445l.018-.004-.018.004z" fill="#fff"/></mask><g mask="url(#mask0_801_4978)"><path d="M38.027 73.718a36.67 36.67 0 01-22.25-7.473c-8.812-6.69-14.5-17.258-14.5-29.15A36.356 36.356 0 017.233 17.1l.001-.002a3.183 3.183 0 01.031-.047l.026-.039a.999.999 0 01.029-.043l.009-.015.02-.029.012-.02a.888.888 0 00.046-.068.726.726 0 01.018-.026l.01-.017c.008-.01.014-.02.021-.031l.01-.014.022-.033.007-.01.025-.038.004-.006a36.816 36.816 0 017.592-8.203 36.772 36.772 0 007.205-4.481A36.726 36.726 0 0136.933.968c20.296 0 36.75 16.397 36.75 36.623 0 14.614-8.589 27.227-21.01 33.103-.844.366-1.706.701-2.581 1.005l-.004.001-.047.016-.006.003-.04.013-.015.005a.453.453 0 01-.034.012l-.02.007-.029.01-.025.008-.024.008a.52.52 0 00-.03.01l-.02.007-.035.012a.99.99 0 01-.054.018l-.01.003a1.995 1.995 0 00-.048.016l-.05.017h-.002a36.845 36.845 0 01-11.572 1.853zm36.155-30.025l.001-.004-.001.004zm.02-.109l.002-.015-.002.015zm.01-.051c0-.006 0-.011.002-.017a.152.152 0 00-.003.017zm.019-.113zm.009-.05c0-.01.003-.017.004-.025l-.004.025zm.01-.057l.006-.041-.007.041zm.017-.103c.335-1.988.51-4.031.51-6.114 0-9.889-3.934-18.863-10.326-25.452 6.392 6.589 10.326 15.563 10.326 25.451 0 2.084-.174 4.126-.51 6.115zM22.323 3.976l.004-.002a36.59 36.59 0 01-.004.002zm6.896-2.445l.018-.004-.018.004z" fill="url(#paint0_linear_801_4978)"/></g><path d="M75.004 36.86c0 15.139-9.127 28.147-22.18 33.82 12.464-5.913 21.082-18.61 21.082-33.322 0-20.356-16.501-36.86-36.857-36.86a36.726 36.726 0 00-14.674 3.039A36.694 36.694 0 0138.147 0c20.355 0 36.857 16.503 36.857 36.86z" fill="#fff"/><path d="M42 21a4 4 0 11-8 0 4 4 0 018 0z" fill="#202020"/><path fill-rule="evenodd" clip-rule="evenodd" d="M28.826 28.077A2 2 0 0130.6 27h12.42c2.122 0 3.891.742 5.135 2.001A6.46 6.46 0 0150 33.481c.015 1.61-.564 3.26-1.793 4.513-1.054 1.075-2.492 1.764-4.207 1.953V55a2 2 0 01-3.994.153l-.87-11.316a4.002 4.002 0 10-2.77-7.489c-.196-.575-.566-1.118-1.115-1.585a132.885 132.885 0 00-3.25-2.683V31h-.187l-1.167 2.246-.152.194.016.012.05.04a119.578 119.578 0 01.92.736c.619.502 1.485 1.215 2.473 2.057.506.43.608.852.568 1.199-.045.392-.293.838-.745 1.198-.729.58-1.839.822-2.908.174l-4.118-3.294a2 2 0 01-.525-2.485l2.6-5zm5.259 12.746a4.54 4.54 0 01-2.085.415V55a2 2 0 003.994.153l.87-11.316a4.007 4.007 0 01-2.78-3.014zM38 42a2 2 0 100-4 2 2 0 000 4zm6-10.892V35.9c.641-.143 1.07-.42 1.351-.707A2.342 2.342 0 0046 33.52a2.461 2.461 0 00-.693-1.708c-.287-.29-.706-.56-1.307-.703z" fill="#202020"/><defs><linearGradient id="paint0_linear_801_4978" x1="-4.491" y1="90.889" x2="63.739" y2="10.965" gradientUnits="userSpaceOnUse"><stop stop-color="#fff"/><stop offset="1" stop-color="#EFEFEF"/></linearGradient></defs></svg>
